images/Haus.svg

<svg width="77" height="72" viewBox="0 0 77 72" fill="none" xmlns="http://www.w3.org/2000/svg">
<path d="M31.1185 65H47.1827V41.2H31.1185V65ZM34.0301 44.1H44.1707V62.1H34.0301V44.1Z" fill="#83B3D3"/>
<path d="M74.3916 39.3L76.5 37.2L66.5602 27.3V0H52.6044V13.6L38.9498 0L1.5 37.2L3.60843 39.3L11.4398 31.5V69.1H7.42369V72H71.5803V69.1H66.4598V31.5L74.3916 39.3ZM63.5482 69.1H14.3514V28.5L38.9498 4.1L63.5482 28.5V69.1ZM63.5482 24.4L55.6165 16.5V2.9H63.5482V24.4Z" fill="#83B3D3"/>
<path d="M31.3193 27.1C31.3193 31.4 34.8333 34.8 39.0502 34.8C43.3675 34.8 46.8815 31.3 46.8815 27.1C46.8815 22.8 43.3675 19.4 39.0502 19.4C34.8333 19.4 31.3193 22.8 31.3193 27.1ZM39.1506 22.1C41.8614 22.1 44.1707 24.3 44.1707 27C44.1707 29.7 41.9618 31.9 39.1506 31.9C36.4398 31.9 34.1305 29.7 34.1305 27C34.1305 24.3 36.3394 22.1 39.1506 22.1Z" fill="#83B3D3"/>
<path d="M21.4799 41.2H18.4679V45.1H21.4799V41.2Z" fill="#83B3D3"/>
<path d="M27.4036 41.2H24.3916V45.1H27.4036V41.2Z" fill="#83B3D3"/>
<path d="M21.4799 47.2H18.4679V51.1H21.4799V47.2Z" fill="#83B3D3"/>
<path d="M27.4036 47.2H24.3916V51.1H27.4036V47.2Z" fill="#83B3D3"/>
<path d="M53.508 41.2H50.496V45.1H53.508V41.2Z" fill="#83B3D3"/>
<path d="M59.4317 41.2H56.4197V45.1H59.4317V41.2Z" fill="#83B3D3"/>
<path d="M53.508 47.2H50.496V51.1H53.508V47.2Z" fill="#83B3D3"/>
<path d="M59.4317 47.2H56.4197V51.1H59.4317V47.2Z" fill="#83B3D3"/>
</svg>

<svg xmlns="http://www.w3.org/2000/svg" width="77" height="72" fill="none"><path fill="#83B3D3" d="M31.1 65h16V41.2h-16V65Zm3-20.9h10v18h-10v-18Z"/><path fill="#83B3D3" d="m74.4 39.3 2.1-2.1-10-9.9V0H52.7v13.6L38.9 0 1.5 37.2l2.1 2.1 7.8-7.8v37.6h-4V72h64.2v-2.9h-5.1V31.5l7.9 7.8ZM63.5 69.1H14.4V28.5L38.9 4.1l24.6 24.4v40.6Zm0-44.7-7.9-7.9V2.9h8v21.5Z"/><path fill="#83B3D3" d="M31.3 27.1c0 4.3 3.5 7.7 7.8 7.7s7.8-3.5 7.8-7.7c0-4.3-3.5-7.7-7.8-7.7a7.7 7.7 0 0 0-7.8 7.7Zm7.9-5a5 5 0 0 1 5 4.9 5 5 0 0 1-5 4.9 5 5 0 0 1-5-4.9 5 5 0 0 1 5-4.9ZM21.5 41.2h-3v3.9h3v-3.9ZM27.4 41.2h-3v3.9h3v-3.9ZM21.5 47.2h-3v3.9h3v-3.9ZM27.4 47.2h-3v3.9h3v-3.9ZM53.5 41.2h-3v3.9h3v-3.9ZM59.4 41.2h-3v3.9h3v-3.9ZM53.5 47.2h-3v3.9h3v-3.9ZM59.4 47.2h-3v3.9h3v-3.9Z"/></svg>
